<?xml version="1.0" encoding="UTF-8"?>
<map version="1.10" tiledversion="1.11.2" orientation="orthogonal" renderorder="right-down" width="16" height="12" tilewidth="16" tileheight="16" infinite="0" nextlayerid="4" nextobjectid="11">
 <tileset firstgid="1" source="placeholder.tsx"/>
 <tileset firstgid="13" source="objects.tsx"/>
 <layer id="1" name="World" width="16" height="12">
  <data encoding="csv">
2,2,2,2,2,2,2,2,2,2,2,2,2,2,2,2,
2,7,7,7,7,7,7,7,7,7,7,7,7,7,7,2,
2,7,7,7,7,7,7,7,7,7,7,7,7,7,7,2,
2,7,7,7,7,7,7,7,7,7,7,7,7,7,7,2,
2,7,7,7,7,7,7,7,7,7,7,7,7,7,7,2,
2,7,7,7,7,7,7,7,7,7,7,7,7,7,7,2,
2,7,7,7,7,7,7,7,7,7,7,7,7,7,7,2,
2,7,7,7,7,7,7,7,7,7,7,7,7,7,7,2,
2,7,7,7,7,7,7,7,7,7,7,7,7,7,7,2,
2,7,7,7,7,7,7,7,7,7,7,7,7,7,7,2,
2,7,7,7,7,7,7,7,7,7,7,7,7,7,7,2,
2,2,2,2,2,2,2,2,7,2,2,2,2,2,2,2
</data>
 </layer>
 <objectgroup id="2" name="Objects">
  <object id="6" gid="13" x="32" y="48" width="48" height="16"/>
 </objectgroup>
 <objectgroup id="3" name="Interactions">
  <object id="2" type="instance" x="80" y="96" width="16" height="16">
   <properties>
    <property name="yarn_node_id" value="holloway_four_winds_act1"/>
    <property name="sprite_texture" type="file" value="res://assets/objects/holloway.png"/>
    <property name="res_path" type="file" value="res://scenes/world/NPC.tscn"/>
   </properties>
  </object>
  <object id="3" type="instance" x="128" y="184" width="16" height="16">
   <properties>
    <property name="target_path" value="res://scenes/world/HeightsSuzy.tscn"/>
    <property name="spawn_point" value="four_winds_entrance"/>
    <property name="res_path" type="file" value="res://scenes/world/ExitDoor.tscn"/>
   </properties>
  </object>
  <object id="4" type="instance" x="128" y="144" width="16" height="16">
   <properties>
    <property name="spawn_id" value="default"/>
    <property name="res_path" type="file" value="res://scenes/world/SpawnPoint.tscn"/>
   </properties>
  </object>
  <object id="5" type="instance" x="32" y="48" width="16" height="16">
   <properties>
    <property name="examine_text" value="A grimy counter. Empty bottles line the shelf."/>
    <property name="sets_flag" value="bar_examined"/>
    <property name="res_path" type="file" value="res://scenes/world/ExamineObject.tscn"/>
   </properties>
  </object>
  <object id="7" type="instance" x="48" y="48" width="16" height="16">
   <properties>
    <property name="examine_text" value="A grimy counter. Empty bottles line the shelf."/>
    <property name="sets_flag" value="bar_examined"/>
    <property name="res_path" type="file" value="res://scenes/world/ExamineObject.tscn"/>
   </properties>
  </object>
  <object id="8" type="instance" x="64" y="48" width="16" height="16">
   <properties>
    <property name="examine_text" value="A grimy counter. Empty bottles line the shelf."/>
    <property name="sets_flag" value="bar_examined"/>
    <property name="res_path" type="file" value="res://scenes/world/ExamineObject.tscn"/>
   </properties>
  </object>
  <object id="9" type="instance" x="128" y="160" width="16" height="16">
   <properties>
    <property name="spawn_id" value="four_winds_entrance"/>
    <property name="res_path" type="file" value="res://scenes/world/SpawnPoint.tscn"/>
   </properties>
  </object>
  <object id="10" type="instance" x="16" y="16" width="224" height="160">
   <properties>
    <property name="dialogue_node" value="intro_four_winds_beat6"/>
    <property name="fire_on_scene_load" type="bool" value="true"/>
    <property name="height" type="float" value="160"/>
    <property name="required_flag" value="intro_complete"/>
    <property name="res_path" type="file" value="res://scenes/world/CutsceneZone.tscn"/>
    <property name="width" type="float" value="224"/>
   </properties>
  </object>
 </objectgroup>
</map>
