<?xml version="1.0" encoding="UTF-8"?>
<map version="1.10" tiledversion="1.11.2" orientation="orthogonal" renderorder="right-down" width="16" height="17" tilewidth="16" tileheight="16" infinite="0" nextlayerid="4" nextobjectid="9">
 <tileset firstgid="1" source="placeholder.tsx"/>
 <tileset firstgid="13" source="objects.tsx"/>
 <layer id="1" name="World" width="16" height="17">
  <data encoding="csv">
2,2,2,2,2,2,2,2,2,2,2,2,2,2,2,2,
2,7,7,7,7,7,7,7,7,7,7,7,7,7,7,2,
2,7,7,7,7,7,7,7,7,7,7,7,7,7,7,2,
2,7,7,7,7,7,7,7,7,7,7,7,7,7,7,2,
2,7,7,7,7,7,7,7,7,7,7,7,7,7,7,2,
2,7,7,7,7,7,7,7,7,7,7,7,7,7,7,2,
2,7,7,7,7,7,7,7,7,7,7,7,7,7,7,2,
2,7,7,7,7,7,7,7,7,7,7,7,7,7,7,2,
2,2,2,2,2,2,2,2,7,2,2,2,2,2,2,2,
2,7,7,7,7,7,7,7,7,7,7,7,7,7,7,2,
2,7,7,7,7,7,7,7,7,7,7,7,7,7,7,2,
2,7,7,7,7,7,7,7,7,7,7,7,7,7,7,2,
2,7,7,7,7,7,7,7,7,7,7,7,7,7,7,2,
2,7,7,7,7,7,7,7,7,7,7,7,7,7,7,2,
2,7,7,7,7,7,7,7,7,7,7,7,7,7,7,2,
2,7,7,7,7,7,7,7,7,7,7,7,7,7,7,2,
2,2,2,2,2,2,2,2,2,2,2,2,2,2,2,2
</data>
 </layer>
 <objectgroup id="2" name="Objects">
 </objectgroup>
 <objectgroup id="3" name="Interactions">
  <object id="1" type="instance" x="128" y="32" width="16" height="16">
   <properties>
    <property name="spawn_id" value="office_entrance"/>
    <property name="res_path" type="file" value="res://scenes/world/SpawnPoint.tscn"/>
   </properties>
  </object>
  <object id="2" type="instance" x="96" y="80" width="16" height="16">
   <properties>
    <property name="res_path" type="file" value="res://scenes/world/NPC.tscn"/>
    <property name="sprite_texture" type="file" value="res://assets/objects/vera.png"/>
    <property name="yarn_node_id" value="vera_intro_beat2"/>
   </properties>
  </object>
  <object id="3" type="instance" x="160" y="32" width="16" height="16">
   <properties>
    <property name="examine_text" value="Active when it shouldn't be. I didn't have language yet for why that was wrong."/>
    <property name="narration" type="bool" value="true"/>
    <property name="res_path" type="file" value="res://scenes/world/ExamineObject.tscn"/>
    <property name="sets_flag" value="ley_terminal_noticed"/>
    <property name="sprite_texture" type="file" value="res://assets/objects/terminal_placeholder.png"/>
   </properties>
  </object>
  <object id="5" type="instance" x="128" y="144" width="16" height="16">
   <properties>
    <property name="spawn_id" value="office_backroom"/>
    <property name="res_path" type="file" value="res://scenes/world/SpawnPoint.tscn"/>
   </properties>
  </object>
  <object id="6" type="instance" x="16" y="176" width="224" height="64">
   <properties>
    <property name="battle_return_scene" value="res://scenes/world/OfficeBuildingInterior.tscn"/>
    <property name="battle_return_spawn_point" value="office_backroom"/>
    <property name="dialogue_node" value="iris_intro_encounter"/>
    <property name="forbidden_flag" value="office_encounter1_complete"/>
    <property name="height" type="float" value="64"/>
    <property name="next_scene" value="res://scenes/battle/BattleScene.tscn"/>
    <property name="pre_battle_enemies" value="private_security_guard,private_security_guard"/>
    <property name="pre_battle_guests" value="iris"/>
    <property name="res_path" type="file" value="res://scenes/world/CutsceneZone.tscn"/>
    <property name="width" type="float" value="224"/>
   </properties>
  </object>
  <object id="7" type="instance" x="16" y="48" width="224" height="32">
   <properties>
    <property name="battle_return_scene" value="res://scenes/world/OfficeBuildingInterior.tscn"/>
    <property name="battle_return_spawn_point" value="office_entrance"/>
    <property name="dialogue_node" value="iris_intro_lobby_ambush"/>
    <property name="forbidden_flag" value="office_encounter2_complete"/>
    <property name="height" type="float" value="32"/>
    <property name="next_scene" value="res://scenes/battle/BattleScene.tscn"/>
    <property name="pre_battle_enemies" value="private_security_guard,security_captain"/>
    <property name="pre_battle_guests" value="iris"/>
    <property name="required_flag" value="office_encounter1_complete"/>
    <property name="res_path" type="file" value="res://scenes/world/CutsceneZone.tscn"/>
    <property name="width" type="float" value="224"/>
   </properties>
  </object>
  <object id="8" type="instance" x="16" y="16" width="224" height="112">
   <properties>
    <property name="dialogue_node" value="iris_intro_exit"/>
    <property name="fire_on_scene_load" type="bool" value="true"/>
    <property name="height" type="float" value="112"/>
    <property name="next_scene" value="res://scenes/world/FourWindsBar.tscn"/>
    <property name="next_spawn_point" value="four_winds_entrance"/>
    <property name="required_flag" value="office_encounter2_complete"/>
    <property name="res_path" type="file" value="res://scenes/world/CutsceneZone.tscn"/>
    <property name="width" type="float" value="224"/>
   </properties>
  </object>
 </objectgroup>
</map>
