<?xml version="1.0" encoding="UTF-8"?>
<map version="1.10" tiledversion="1.11.2" orientation="orthogonal" renderorder="right-down" width="12" height="8" tilewidth="16" tileheight="16" infinite="0" nextlayerid="4" nextobjectid="4">
 <tileset firstgid="1" source="placeholder.tsx"/>
 <tileset firstgid="13" source="objects.tsx"/>
 <layer id="1" name="World" width="12" height="8">
  <data encoding="csv">
2,2,2,2,2,2,2,2,2,2,2,2,
2,7,7,7,7,7,7,7,7,7,7,2,
2,7,7,7,7,7,7,7,7,7,7,2,
2,7,7,7,7,7,7,7,7,7,7,2,
2,7,7,7,7,7,7,7,7,7,7,2,
2,7,7,7,7,7,7,7,7,7,7,2,
2,7,7,7,7,7,7,7,7,7,7,2,
2,2,2,2,2,7,2,2,2,2,2,2
</data>
 </layer>
 <objectgroup id="2" name="Objects">
 </objectgroup>
 <objectgroup id="3" name="Interactions">
  <object id="1" type="instance" x="80" y="32" width="16" height="16">
   <properties>
    <property name="spawn_id" value="rooftop_start"/>
    <property name="res_path" type="file" value="res://scenes/world/SpawnPoint.tscn"/>
   </properties>
  </object>
  <object id="3" type="instance" x="16" y="16" width="160" height="96">
   <properties>
    <property name="dialogue_node" value="rooftop_surveillance"/>
    <property name="fire_on_scene_load" type="bool" value="true"/>
    <property name="height" type="float" value="96"/>
    <property name="next_scene" value="res://scenes/world/HeightsStreet.tscn"/>
    <property name="res_path" type="file" value="res://scenes/world/CutsceneZone.tscn"/>
    <property name="width" type="float" value="160"/>
   </properties>
  </object>
 </objectgroup>
</map>
