<?xml version="1.0" encoding="UTF-8"?>
<map version="1.10" tiledversion="1.11.2" orientation="orthogonal" renderorder="right-down" width="16" height="12" tilewidth="16" tileheight="16" infinite="0" nextlayerid="4" nextobjectid="9">
 <tileset firstgid="1" source="placeholder.tsx"/>
 <layer id="1" name="World" width="16" height="12">
  <data encoding="csv">
2,2,2,2,2,2,2,2,7,2,2,2,2,2,2,2,
2,7,7,7,7,7,7,7,7,7,7,7,7,7,7,2,
2,7,7,7,7,7,7,7,7,7,7,7,7,7,7,2,
2,7,7,7,7,7,7,7,7,7,7,7,7,7,7,2,
2,7,7,7,7,7,7,7,7,7,7,7,7,7,7,2,
2,7,7,7,7,7,7,7,7,7,7,7,7,7,7,2,
2,7,7,7,7,7,7,7,7,7,7,7,7,7,7,2,
2,7,7,7,7,7,7,7,7,7,7,7,7,7,7,2,
2,7,7,7,7,7,7,7,7,7,7,7,7,7,7,2,
2,7,7,7,7,7,7,7,7,7,7,7,7,7,7,2,
2,7,7,7,7,7,7,7,7,7,7,7,7,7,7,2,
2,2,2,2,2,2,2,2,7,2,2,2,2,2,2,2
</data>
 </layer>
 <objectgroup id="2" name="Objects">
 </objectgroup>
 <objectgroup id="3" name="Interactions">
  <object id="1" type="instance" x="128" y="144" width="16" height="16">
   <properties>
    <property name="spawn_id" value="heights_entrance"/>
    <property name="res_path" type="file" value="res://scenes/world/SpawnPoint.tscn"/>
   </properties>
  </object>
  <object id="2" type="instance" x="128" y="32" width="16" height="16">
   <properties>
    <property name="spawn_id" value="clinic_entrance"/>
    <property name="res_path" type="file" value="res://scenes/world/SpawnPoint.tscn"/>
   </properties>
  </object>
  <object id="3" type="instance" x="128" y="8" width="16" height="16">
   <properties>
    <property name="target_path" value="res://scenes/world/KarimClinic.tscn"/>
    <property name="spawn_point" value="sprawl_entrance"/>
    <property name="res_path" type="file" value="res://scenes/world/ExitDoor.tscn"/>
   </properties>
  </object>
  <object id="4" type="instance" x="128" y="176" width="16" height="16">
   <properties>
    <property name="target_path" value="res://scenes/world/HeightsSuzy.tscn"/>
    <property name="spawn_point" value="sprawl_entrance"/>
    <property name="res_path" type="file" value="res://scenes/world/ExitDoor.tscn"/>
   </properties>
  </object>
  <object id="5" type="instance" x="80" y="64" width="16" height="16">
   <properties>
    <property name="res_path" type="file" value="res://scenes/world/NPC.tscn"/>
   </properties>
  </object>
  <object id="6" type="instance" x="112" y="48" width="16" height="16">
   <properties>
    <property name="res_path" type="file" value="res://scenes/world/NPC.tscn"/>
   </properties>
  </object>
  <object id="7" type="instance" x="144" y="64" width="16" height="16">
   <properties>
    <property name="res_path" type="file" value="res://scenes/world/NPC.tscn"/>
    <property name="sprite_texture" value="res://assets/objects/iris.png"/>
   </properties>
  </object>
  <object id="8" type="instance" x="16" y="32" width="224" height="128">
   <properties>
    <property name="dialogue_node" value="sprawl_convergence_beat3"/>
    <property name="next_scene" value="res://scenes/battle/BattleScene.tscn"/>
    <property name="res_path" type="file" value="res://scenes/world/CutsceneZone.tscn"/>
   </properties>
  </object>
 </objectgroup>
</map>
